X: 23
T:Catching Of Quails
M:6/8
L:1/8
K:G
c2 c c>BA|B2 G G>e=f| e2 e e>=fg|f3 d3|e2 e e>BA|B2 G G>e=f| g2 g e>=fg| f3 B3:|
|: f2 g f2 g|f2 g f>ef|g2 =f e>dc|B3 G3|g2 a g2 a|g2 a g2 =f|e2 d e>dc| B3 G3:|

